src/assets/icons/twitter.svg

<svg width="19" height="14" viewBox="0 0 19 14" fill="none" xmlns="http://www.w3.org/2000/svg">
<path opacity="0.7" fill-rule="evenodd" clip-rule="evenodd" d="M15.1949 2.85372C15.1949 2.85372 15.1949 2.71239 15.1949 2.85372C14.4751 2.14704 13.6115 1.86436 12.7478 2.0057C13.6115 1.86436 14.0433 1.58169 14.1873 1.44035C14.1873 1.29901 14.1873 1.15767 14.0433 1.15767C13.6115 1.15767 13.1796 1.29901 12.8917 1.44035C13.3236 1.15767 13.4675 1.01634 13.4675 0.875C13.0357 0.875 12.6038 1.15767 12.0281 1.58169C12.172 1.29901 12.3159 1.15767 12.172 1.01634C11.8841 1.15767 11.7402 1.29901 11.5962 1.58169C11.1644 2.0057 10.8765 2.28837 10.7325 2.71239C10.1567 3.70175 9.7249 4.54977 9.43701 5.53913H9.29306C9.00517 5.11512 8.57333 4.69111 7.99754 4.40843C7.42175 3.98442 6.70202 3.70175 5.83834 3.27773C4.97466 2.85372 4.11097 2.42971 3.10335 2.14704C3.10335 3.1364 3.53519 3.98442 4.54281 4.54977C4.25492 4.54977 3.82308 4.54977 3.53519 4.69111C3.53519 5.53913 4.25492 6.24582 5.55044 6.52849C5.1186 6.52849 4.68676 6.66983 4.25492 6.95251C4.68676 7.80053 5.4065 8.0832 6.55807 8.0832C6.41412 8.22454 6.12623 8.36588 6.12623 8.36588C5.98228 8.50722 5.83834 8.78989 5.98228 9.07257C6.27018 9.49658 6.55807 9.63792 7.27781 9.63792C6.27018 10.6273 4.97466 11.1926 3.53519 11.0513C2.67151 11.0513 1.66388 10.6273 0.65625 9.77925C1.66388 11.1926 3.10335 12.3233 4.83071 13.03C6.84596 13.5954 8.86122 13.7367 10.7325 13.1713C12.6038 12.606 14.3312 11.4753 15.6267 9.92059C16.2025 9.07257 16.6344 8.22454 16.7783 7.37652C17.7859 7.37652 18.5057 7.09384 18.9375 6.52849C18.6496 6.66983 17.9299 6.66983 16.9222 6.38716C17.9299 6.24582 18.6496 5.96314 18.7936 5.3978C18.0738 5.68047 17.3541 5.68047 16.6344 5.3978C16.4904 4.40843 16.0586 3.56041 15.1949 2.85372Z" fill="#3D3D3D"/>
</svg>

<svg width="19" height="14" fill="none" xmlns="http://www.w3.org/2000/svg"><path opacity=".7" fill-rule="evenodd" clip-rule="evenodd" d="M15.195 2.854s0-.142 0 0c-.72-.707-1.584-.99-2.447-.848.864-.142 1.295-.424 1.44-.566 0-.141 0-.282-.145-.282-.431 0-.863.141-1.151.282.432-.282.575-.424.575-.565-.431 0-.863.283-1.439.707.144-.283.288-.424.144-.566a1.114 1.114 0 0 0-.576.566c-.432.424-.72.706-.864 1.13-.575.99-1.007 1.838-1.295 2.827h-.144a3.378 3.378 0 0 0-1.295-1.13c-.576-.425-1.296-.707-2.16-1.131-.863-.424-1.727-.848-2.735-1.131 0 .99.432 1.837 1.44 2.403-.288 0-.72 0-1.008.141 0 .848.72 1.555 2.015 1.837-.431 0-.863.142-1.295.425.432.848 1.152 1.13 2.303 1.13-.144.142-.432.283-.432.283-.144.141-.288.424-.144.707.288.424.576.565 1.296.565-1.008.99-2.303 1.555-3.743 1.413-.863 0-1.871-.424-2.879-1.272 1.008 1.414 2.447 2.544 4.175 3.251 2.015.565 4.03.707 5.901.141a10.283 10.283 0 0 0 4.895-3.25c.575-.848 1.007-1.696 1.151-2.544 1.008 0 1.728-.283 2.16-.849-.288.142-1.008.142-2.016-.14 1.008-.142 1.728-.425 1.872-.99-.72.282-1.44.282-2.16 0-.144-.99-.575-1.838-1.44-2.544z" fill="#3D3D3D"/></svg>
